packages/katcn/src/icons/svg/visibile.svg

<svg xmlns="http://www.w3.org/2000/svg" fill="none" viewBox="0 0 24 24"><path fill="#000" d="M21.8 9.8C19.8 8 16.5 6 12 6S4.2 8 2.2 9.8c-.8.6-1.2 1.6-1.2 2.6s.4 2 1.2 2.6c2 1.7 5.3 3.8 9.8 3.8s7.8-2 9.8-3.8c.8-.6 1.2-1.6 1.2-2.6s-.4-2-1.2-2.6m-1.3 3.7c-1.7 1.5-4.6 3.3-8.5 3.3S5.2 15 3.5 13.5c-.3-.3-.5-.7-.5-1.1s.2-.8.5-1.1C5.2 9.8 8.1 8 12 8s6.8 1.8 8.5 3.3c.3.2.5.6.5 1.1 0 .4-.2.8-.5 1.1"/><path fill="#000" d="M12 14.7a2.3 2.3 0 1 0 0-4.6 2.3 2.3 0 0 0 0 4.6"/></svg>

<svg width="24" height="24" viewBox="0 0 24 24" fill="none" xmlns="http://www.w3.org/2000/svg">
<path d="M21.8 9.8C19.8 8 16.5 6 12 6C7.5 6 4.2 8 2.2 9.8C1.4 10.4 1 11.4 1 12.4C1 13.4 1.4 14.4 2.2 15C4.2 16.7 7.5 18.8 12 18.8C16.5 18.8 19.8 16.8 21.8 15C22.6 14.4 23 13.4 23 12.4C23 11.4 22.6 10.4 21.8 9.8ZM20.5 13.5C18.8 15 15.9 16.8 12 16.8C8.1 16.8 5.2 15 3.5 13.5C3.2 13.2 3 12.8 3 12.4C3 12 3.2 11.6 3.5 11.3C5.2 9.8 8.1 8 12 8C15.9 8 18.8 9.8 20.5 11.3C20.8 11.5 21 11.9 21 12.4C21 12.8 20.8 13.2 20.5 13.5Z" fill="black"/>
<path d="M12 14.7C13.2703 14.7 14.3 13.6703 14.3 12.4C14.3 11.1298 13.2703 10.1 12 10.1C10.7298 10.1 9.70001 11.1298 9.70001 12.4C9.70001 13.6703 10.7298 14.7 12 14.7Z" fill="black"/>
</svg>
